flaticon/medical/pills-2.svg

<svg xmlns="http://www.w3.org/2000/svg" width="32" height="32" viewBox="0 0 24 24">
    <path d="M 20 5.199219 L 20 0 L 4 0 L 4 5.199219 L 5.199219 5.199219 L 5.199219 5.601562 L 4 5.601562 L 4 8 L 5.199219 8 L 5.199219 24 L 18.800781 24 L 18.800781 8 L 20 8 L 20 5.601562 L 18.800781 5.601562 L 18.800781 5.199219 Z M 4.800781 4.398438 L 4.800781 0.800781 L 19.199219 0.800781 L 19.199219 4.398438 L 18 4.398438 L 18 3.601562 L 17.199219 3.601562 L 17.199219 4.398438 L 16.398438 4.398438 L 16.398438 3.601562 L 15.601562 3.601562 L 15.601562 4.398438 L 14.800781 4.398438 L 14.800781 3.601562 L 14 3.601562 L 14 4.398438 L 13.199219 4.398438 L 13.199219 3.601562 L 12.398438 3.601562 L 12.398438 4.398438 L 11.601562 4.398438 L 11.601562 3.601562 L 10.800781 3.601562 L 10.800781 4.398438 L 10 4.398438 L 10 3.601562 L 9.199219 3.601562 L 9.199219 4.398438 L 8.398438 4.398438 L 8.398438 3.601562 L 7.601562 3.601562 L 7.601562 4.398438 L 6.800781 4.398438 L 6.800781 3.601562 L 6 3.601562 L 6 4.398438 Z M 6 9.566406 L 6.800781 9.566406 L 6.800781 20.800781 L 6 20.800781 Z M 18 10.800781 L 14.800781 10.800781 L 14.800781 11.601562 L 18 11.601562 L 18 12.398438 L 14.800781 12.398438 L 14.800781 13.199219 L 18 13.199219 L 18 14 L 14.800781 14 L 14.800781 14.800781 L 18 14.800781 L 18 15.601562 L 14.800781 15.601562 L 14.800781 16.398438 L 18 16.398438 L 18 17.199219 L 14.800781 17.199219 L 14.800781 18 L 18 18 L 18 18.800781 L 14.800781 18.800781 L 14.800781 19.601562 L 18 19.601562 L 18 20.800781 L 12.398438 20.800781 L 12.398438 9.601562 L 18 9.601562 Z M 19.199219 6.398438 L 19.199219 7.199219 L 18 7.199219 L 18 8.800781 L 11.601562 8.800781 L 11.601562 21.601562 L 18 21.601562 L 18 23.199219 L 6 23.199219 L 6 21.601562 L 7.601562 21.601562 L 7.601562 8.765625 L 6 8.765625 L 6 7.199219 L 4.800781 7.199219 L 4.800781 6.398438 Z M 18 5.601562 L 6 5.601562 L 6 5.199219 L 18 5.199219 Z M 18 5.601562"/>
    <path d="M6.800781 7.199219L9.199219 7.199219 9.199219 8 6.800781 8zM10.398438 7.199219L15.199219 7.199219 15.199219 8 10.398438 8zM16.398438 7.199219L17.199219 7.199219 17.199219 8 16.398438 8zM16.398438 7.199219"/>
</svg>

<svg xmlns="http://www.w3.org/2000/svg" width="32" height="32" viewBox="0 0 24 24">
    <path d="M20 5.2V0H4v5.2h1.2v.402H4V8h1.2v16h13.6V8H20V5.602h-1.2v-.403zM4.8 4.397V.801h14.4v3.597H18v-.796h-.8v.796h-.802v-.796h-.796v.796H14.8v-.796H14v.796h-.8v-.796h-.802v.796h-.796v-.796H10.8v.796H10v-.796h-.8v.796h-.802v-.796h-.796v.796H6.8v-.796H6v.796zM6 9.566h.8v11.235H6zm12 1.235h-3.2v.8H18v.797h-3.2v.801H18V14h-3.2v.8H18v.802h-3.2v.796H18v.801h-3.2V18H18v.8h-3.2v.802H18V20.8h-5.602V9.6H18zm1.2-4.403V7.2H18v1.602h-6.398v12.8H18V23.2H6v-1.597h1.602V8.766H6V7.199H4.8v-.8zM18 5.602H6v-.403h12zm0 0"/>
    <path d="M6.8 7.2h2.4V8H6.8zm0 0M10.398 7.2H15.2V8h-4.8zm0 0M16.398 7.2h.801V8h-.8zm0 0"/>
</svg>
